images/fb.svg

<svg width="45" height="45" viewBox="0 0 45 45" fill="none" xmlns="http://www.w3.org/2000/svg">
<path fill-rule="evenodd" clip-rule="evenodd" d="M22.5 43C33.8218 43 43 33.8218 43 22.5C43 11.1782 33.8218 2 22.5 2C11.1782 2 2 11.1782 2 22.5C2 33.8218 11.1782 43 22.5 43ZM22.5 45C34.9264 45 45 34.9264 45 22.5C45 10.0736 34.9264 0 22.5 0C10.0736 0 0 10.0736 0 22.5C0 34.9264 10.0736 45 22.5 45Z" fill="#F13C6E"/>
<path d="M26.9993 13.0042L24.4058 13C21.4921 13 19.6091 14.9319 19.6091 17.922V20.1914H17.0014C16.7761 20.1914 16.5936 20.3741 16.5936 20.5994V23.8875C16.5936 24.1128 16.7763 24.2953 17.0014 24.2953H19.6091V32.5922C19.6091 32.8175 19.7915 33 20.0169 33H23.4192C23.6445 33 23.827 32.8173 23.827 32.5922V24.2953H26.8759C27.1013 24.2953 27.2837 24.1128 27.2837 23.8875L27.285 20.5994C27.285 20.4912 27.2419 20.3876 27.1656 20.311C27.0892 20.2345 26.9852 20.1914 26.877 20.1914H23.827V18.2676C23.827 17.343 24.0473 16.8736 25.2518 16.8736L26.9989 16.873C27.224 16.873 27.4065 16.6903 27.4065 16.4651V13.412C27.4065 13.1871 27.2242 13.0046 26.9993 13.0042Z" fill="#F13C6E"/>
</svg>

<svg xmlns="http://www.w3.org/2000/svg" width="45" height="45" fill="none"><path fill="#F13C6E" fill-rule="evenodd" d="M22.5 43C33.822 43 43 33.822 43 22.5S33.822 2 22.5 2 2 11.178 2 22.5 11.178 43 22.5 43Zm0 2C34.926 45 45 34.926 45 22.5S34.926 0 22.5 0 0 10.074 0 22.5 10.074 45 22.5 45Z" clip-rule="evenodd"/><path fill="#F13C6E" d="M27 13.004 24.405 13c-2.914 0-4.797 1.932-4.797 4.922v2.27h-2.608a.408.408 0 0 0-.407.407v3.288c0 .226.182.408.407.408h2.608v8.297c0 .226.182.408.408.408h3.402a.408.408 0 0 0 .408-.408v-8.297h3.049a.408.408 0 0 0 .408-.408l.001-3.288a.409.409 0 0 0-.408-.408h-3.05v-1.923c0-.925.22-1.394 1.425-1.394l1.747-.001a.408.408 0 0 0 .408-.408v-3.053a.408.408 0 0 0-.408-.408Z"/></svg>
